X:18
T:Lady Of The Lake. CAM2.[18], The
B:Anon MS#2, early 19thC, Northumbria, Cocks Coll.
Z:Village Music Project 2016 Steve Mansfield
M:6/8
L:1/8
Q:3/8=110
K:G
B>cA G2D | E2D G2D | B>cA G2B | A2d d3 |
B>cA G2D | E2D G2D | G2D B2A | GBA G3 :|
|: B>cA B2A | B2c d3 | g2f e2d | dcB A2A |
B>cA B2A | B2c d3 | g2f a2g | fge d2c !D.C.! |]

